X:34
T:Bosley Road Jig
R:jig
C:Bruce Osborne - Jan. 2003
Z:abc by bosborne@kos.net
M:6/8
L:1/8
K:Emaj
g/a/|b2 g ege|BcB GFE|DFF B,FF|EGc B2 g/a/|\
b2 g ege|BcB GFE|DFF B,FF|GFD E2:|
|:G/A/|BGG cGG|BcB GFE|DFD B,CD|EGc B2 G/A/|\
BGG cGG|BcB GFE|DFD B,CD|EGF E2:|
